svgs/sharp-solid/anchor-lock.svg

<svg xmlns="http://www.w3.org/2000/svg" viewBox="0 0 640 512"><!--! Font Awesome Pro 6.4.2 by @fontawesome - https://fontawesome.com License - https://fontawesome.com/license (Commercial License) Copyright 2023 Fonticons, Inc. --><path d="M320 96a32 32 0 1 1 -64 0 32 32 0 1 1 64 0zm21.1 80C367 158.8 384 129.4 384 96c0-53-43-96-96-96s-96 43-96 96c0 33.4 17 62.8 42.9 80H224 192v64h32 32V448H128V352h64L96 256 0 352H64V480v32H96 288h96l0-64H320V240h32 32V176H352 341.1zM528 240c17.7 0 32 14.3 32 32v48H496V272c0-17.7 14.3-32 32-32zm-80 32v48H416V512H640V320H608V272c0-44.2-35.8-80-80-80s-80 35.8-80 80z"/></svg>

<svg xmlns="http://www.w3.org/2000/svg" viewBox="0 0 640 512"><!--! Font Awesome Pro 6.6.0 by @fontawesome - https://fontawesome.com License - https://fontawesome.com/license (Commercial License) Copyright 2024 Fonticons, Inc. --><path d="M320 96a32 32 0 1 1 -64 0 32 32 0 1 1 64 0zm21.1 80C367 158.8 384 129.4 384 96c0-53-43-96-96-96s-96 43-96 96c0 33.4 17 62.8 42.9 80L224 176l-32 0 0 64 32 0 32 0 0 208-128 0 0-96 64 0L96 256 0 352l64 0 0 128 0 32 32 0 192 0 96 0 0-64-64 0 0-208 32 0 32 0 0-64-32 0-10.9 0zM528 240c17.7 0 32 14.3 32 32l0 48-64 0 0-48c0-17.7 14.3-32 32-32zm-80 32l0 48-32 0 0 192 224 0 0-192-32 0 0-48c0-44.2-35.8-80-80-80s-80 35.8-80 80z"/></svg>
